X: 1
T:O'ER THE BOWS TO BALLINDALLOCH  "37"
M:C
L:1/8
Q:80
C:Traditional
S:Strathspey
K:HP
|: a2{GdG}a3/2f/2{gef}e3/2d/2{g}e/2f3/2|
a2{GdG}a3/2f/2{gef}e3/2d/2{gBG}B2|
a2{GdG}a3/2f/2{gef}e3/2d/2{g}e/2f3/2|  !
{g}A3/2B/2{Gdc}d3/2f/2{g}B/2d{e}A2:| [|
{g}A3/2d/2{gfg}f3/2d/2{gef}e3/2d/2{gfg}f3/2d/2|
{g}A3/2d/2{gfg}f3/2d/2{gef}e3/2d/2{gBG}B2|  !
{g}A3/2d/2{gfg}f3/2d/2{gef}e3/2d/2{gfg}f3/2d/2|
{g}A3/2B/2{Gdc}d3/2f/2{g}B3/2d/2{e}A2| [|
{g}A3/2d/2{gfg}f3/2d/2{gef}e3/2d/2{gfg}f3/2d/2|  !
{g}A3/2d/2{gfg}f3/2d/2{gef}e3/2d/2{gBG}B2|
{ag}a2{GdG}a3/2f/2{gef}e3/2d/2{g}e/2f3/2|
{g}A3/2B/2{Gdc}d3/2f/2{g}B/2d{e}A2|]  !
